X:1
T:Jesus Is Coming
T:Jesus Is Coming
T:James McGranahan
T:Daniel Webster Whittle, 1881
T:Public Domain Courtesy of the Cyber Hymnal™
T:Public Domain Courtesy of the Cyber Hymnal™
C:James McGranahan
Z:Public Domain
Z:Courtesy of the Cyber Hymnal™
%%score ( 1 2 ) ( 3 4 )
L:1/8
Q:1/4=90
M:6/8
K:Bb
V:1 treble 
V:2 treble 
V:3 bass 
V:4 bass 
V:1
 [DF][B,D][CE] [DF]<[DB][DB] | [EA]>[EB][Ec] [DB]3 | [DF][B,D][CE] [DF][FB][Fc] | %3
w: 1.~Je- sus is com- ing! O|sing the glad word!|Com- ing for those He re-|
w: 2.~Je- sus is com- ing! The|dead shall a- rise,|Loved ones shall meet in a|
w: 3.~Je- sus is com- ing! His|saints to re- lease;|Com- ing to give to the|
w: 4.~Je- sus is com- ing! The|prom- ise is true;|Who are the chos- en, the|
 [Fd]>[Fe][Fd] [Fc]3 | [Fd]>[Gc][_AB] [GB][F=A][EG] | [DF][B,D][DF] B3 | %6
w: deemed by His blood,|Com- ing to reign as the|glor- i- fied Lord!|
w: joy- ful sur- prise,|Caught up to- ge- ther to|Him in the skies|
w: war- ring earth peace:|Sin- ning and sigh- ing, and|sor- row shall cease.|
w: faith- ful, the few,|Wait- ing and watch- ing, pre-|pared for re- view?|
 [EA]>[EA][EA] [EA][EB][Ec] | [DB]6 ||"^Refrain" [Ge]>[Ge][Ge] [Ge][Ge][Ge] | [Fd][Fd][Fd] [Fd]3 | %10
w: Je- sus is com- ing a-|gain!|||
w: Je- sus is com- ing a-|gain!|Je- sus is com- ing, is|com- ing a- gain!|
w: Je- sus is com- ing a-|gain.|||
w: Je- sus is com- ing a-|gain!|||
 [Fd]>[Fc][Fd] [Ff][Fe][Fd] | c6 | [DF]>[B,D][CE] [DF][FB][Fc] | [F_Ad]>[FAc][FAd] !fermata![Ge]3 | %14
w: ||||
w: Je- sus is com- ing a-|gain!|Shout the glad tid- ings o’er|mount- ain and plain!|
w: ||||
w: ||||
 [Fe]>[Fd][Fc] [Fc][FB][EA] | [DB]6 |] %16
w: ||
w: Je- sus is com- ing a-|gain!|
w: ||
w: ||
V:2
 x6 | x6 | x6 | x6 | x6 | x3 (D2 F) | x6 | x6 || x6 | x6 | x6 | (FAGFFE) | x6 | x6 | x6 | x6 |] %16
V:3
 [B,,B,][B,,F,][B,,F,] [B,,F,]<[B,,F,][B,,F,] | F,>F,F, [B,,F,]3 | %2
w: ~ ~ ~ ~ ~ ~|~ ~ ~ ~|
 [B,,B,][B,,F,][B,,F,] [B,,F,][D,F,][F,A,] | B,>[A,C]B, [F,A,]3 | B,>[B,E][B,D] [E,E][E,B,][E,B,] | %5
w: ~ ~ ~ ~ ~ ~|~ ~ ~ ~|~ ~ ~ ~ ~ ~|
 [B,,B,][B,,F,][B,,F,] (F,2 D) | [F,C]>[F,C][F,C] [F,C][F,A,][F,A,] | B,6 || %8
w: ~ ~ ~ ~ *|~ ~ ~ ~ ~ ~|~|
 [E,B,]>[E,B,][E,B,] [E,B,][E,B,][E,B,] | [B,,B,][B,,B,][B,,B,] [B,,B,]3 | %10
w: ~ ~ ~ ~ ~ ~|~ ~ ~ ~|
 [B,,B,]>[B,,A,][B,,B,] [B,,D][C,C][D,B,] | [F,A,][F,C][F,B,] [F,A,][E,A,][C,A,] | %12
w: ~ ~ ~ ~ ~ ~|Yes, Je- sus is com- ing!|
 [B,,B,]>[B,,B,][B,,B,] [B,,B,][D,B,][F,A,] | B,>B,B, !fermata![E,B,]3 | %14
w: Oh, * * * * *||
 [F,A,]>[F,B,][F,C] [F,E][F,D][F,C] | [B,,B,]6 |] %16
w: ||
V:4
 x6 | F,>F,F, x3 | x6 | B,3/2B, x7/2 | B,3/2 x9/2 | x3 B,,3 | x6 | B,6 || x6 | x6 | x6 | x6 | x6 | %13
 B,>B,B, x3 | x6 | x6 |] %16

